X: 1
T: Aloha oe
C: Queen Lili'uokalani (1877)
M: C
L: 1/8
K: G
DG | "G"B2 BA "C"GF GE | "G"D4 z2 B2 | "D"A3 ^G AA cB |
w: 1.~Ha-`a-heo `e ka u-a i-n\^a p\^ali Ke nihi a-`e-la ka na-
	 "D"A4 z2  DG | "G"B3 A "C"GF GE | "G"D4 z2 DD |
w: hele E u-ha-i pa-ha i ka liko Pu-a
     "C"E2 AG "D"FB AF | "G"G4 z || G GF | "C"E2- G2 cE EE |
w: `a-hi-hi le-hu-a o uka. A-lo-ha  `o-*e, a-lo-ha
     "G"D2- G2 B2 GG | "D"FF FG A^G Ac | "G"B4 G2 zF |
w: `o-*e, E ke o-na-o-na no-ho i-ka li-po. A
     "C"E2 G2 c3 E | "G"DD GG B3 G | "D"F3 G B-A2 F | "G"G4 z2 |]
w: fond em-brace a ho-`i a-`e au, A hu-i ho-u a-ku.
%
W:2. `O ka hali`a aloha ka i hiki mai   Ke hone a`e nei i ku`u manawa.
W:  `O `oe n\^o ka`u ipo aloha   A loko e hana nei.
W:
W:3. Maopopo ku`u `ike i ka nani   N\^a pua rose o Mauna-wili.
W:  I laila ho`ohie n\^a manu,   Miki`ala i ka nani o ia pua.
W:
W: Proudly the rain on the cliffs   Creeps into the forest
W: Seeking the buds   And small lehua flowers of the uplands.
W:
W: Chorus:
W: Farewell to thee, farewell to thee O fragrance in the blue depths.
W: One fond embrace and I leave Until we meet again.
W:
W: Sweet memories come Sound softly in my heart.
W: You are my beloved sweetheart Felt within.
W:
W: I understand the beauty Of rose blossoms at Mauna-wili.
W: There the birds delight To the beauty of this flower.
